!!!COM: Palestrina, Giovanni Perluigi da
!!!OPR: Missa Qual e il piu grande'amore
!!!OTL: Kyrie
**kern	**kern	**kern	**kern	**kern
*Ibass	*Itenor	*Icalto	*Icant	*Icant
!Bassus	!Tenor	!Altus	!Cantus 2	!Cantus 1
*clefF4	*clefGv2	*clefG2	*clefG2	*clefG2
*k[b-]	*k[b-]	*k[b-]	*k[b-]	*k[b-]
*F:ion	*F:ion	*F:ion	*F:ion	*F:ion
*M4/2	*M4/2	*M4/2	*M4/2	*M4/2
=1	=1	=1	=1	=1
0r	0r	0r	1r	1f
.	.	.	1f	2a
.	.	.	.	2a
=2	=2	=2	=2	=2
0r	1r	0r	2a	2.cc
.	.	.	2a	.
.	.	.	.	4b-
.	1F	.	2.cc	4a
.	.	.	.	4g
.	.	.	.	2f
.	.	.	4b-	.
=3	=3	=3	=3	=3
2r	2A	0r	4a	2e
.	.	.	4g	.
2F	2A	.	2f	2.a
2A	1c	.	2e	.
.	.	.	.	4g
2A	.	.	2a	[2f
=4	=4	=4	=4	=4
2.c	1C	0r	2g	2f]
.	.	.	2.cc	2e
4B-	.	.	.	.
4A	2.F	.	.	1f
4G	.	.	4b-	.
4F	.	.	4a	.
4E	4G	.	4g	.
=5	=5	=5	=5	=5
2D	4A	0r	2f	2r
.	4B-	.	.	.
2C	1c	.	2e	1g
1G	.	.	1d	.
.	2B	.	.	2g
=6	=6	=6	=6	=6
2r	0c	1r	2e	2g
2F	.	.	2.f	2.a
2A	.	1F	.	.
.	.	.	4g	4b-
2A	.	.	[2a	[2cc
=7	=7	=7	=7	=7
2.c	2r	2A	4a]	4cc]
.	.	.	4b-	4b-
.	1F	2A	1cc	4a
4B-	.	.	.	4g
4A	.	2.c	.	1a
4G	.	.	.	.
4F	2A	.	2a	.
4E	.	8d	.	.
.	.	8e	.	.
=8	=8	=8	=8	=8
2D	2A	2f	2dd	1r
2C	1c	2e	2g	.
1G	.	1d	1g	2r
.	2B	.	.	2g
=9	=9	=9	=9	=9
1r	1c	0e	0r	2g
.	.	.	.	2g
1A	2r	.	.	[1a
.	2c	.	.	.
=10	=10	=10	=10	=10
2A	2c	2r	1r	1a]
2A	2c	2f	.	.
1B-	[1d	2f	2r	2f
.	.	2f	2b-	2d
=11	=11	=11	=11	=11
1G	2d]	1g	2b-	1dd
.	2d	.	2b-	.
1A	2c	1e	1cc	1r
.	4A	.	.	.
.	4B-	.	.	.
=12	=12	=12	=12	=12
1F	4c	1f	1a	0r
.	4A	.	.	.
.	4d	.	.	.
.	4c	.	.	.
2G	2B	2d	2g	.
2A	[2c	2c	2f#	.
=13	=13	=13	=13	=13
1G	2c]	1d	2.g	2r
.	2B	.	.	2g
.	.	.	4f	.
2.c	2r	2r	1e	2g
.	2c	2e	.	2g
4B-	.	.	.	.
=14	=14	=14	=14	=14
4A	2c	2e	2r	2.a
4G	.	.	.	.
2A	2c	2e	2a	.
.	.	.	.	4g
1D	1d	[1f	2a	4f
.	.	.	.	4e
.	.	.	2a	2d
=15	=15	=15	=15	=15
0r	1B-	2f]	1b-	1dd
.	.	2d	.	.
.	1c	1e	1g	2r
.	.	.	.	2cc
=16	=16	=16	=16	=16
0r	1A	2f	1a	2cc
.	.	2e	.	2cc
.	2B-	2d	1f	2dd
.	2d	[2f	.	2b-
=17	=17	=17	=17	=17
0r	1c	2f]	2g	2.cc
.	.	2e	2cc	.
.	.	.	.	4b-
.	1F	2.f	4dd	1a
.	.	.	4cc	.
.	.	.	[2cc	.
.	.	4e	.	.
=18	=18	=18	=18	=18
1r	1G	1d	2cc]	2g
.	.	.	2b	1g
1C	1c	2r	[1cc	.
.	.	2e	.	2g
=19	=19	=19	=19	=19
2C	2r	2e	1cc]	2g
2C	2A	2e	.	1a
1D	2A	1f	1a	.
.	2A	.	.	[2f
=20	=20	=20	=20	=20
1BB-	1B-	1d	1r	2f]
.	.	.	.	1g
1C	1G	1e	2r	.
.	.	.	2cc	2e
=21	=21	=21	=21	=21
1AA	2A	2c	2cc	2f
.	2c	2e	2cc	2a
2BB-	4B	1d	2dd	2g
.	4A	.	.	.
2D	4G	.	2b-	[2f
.	4F	.	.	.
=22	=22	=22	=22	=22
0C	0G	1g	2cc	2f]
.	.	.	2g	4e
.	.	.	.	4d
.	.	2r	2g	1e
.	.	2c	2g	.
=23	=23	=23	=23	=23
1F	0F	2c	4a	[0f
.	.	.	4b-	.
.	.	2c	4cc	.
.	.	.	4a	.
[1BB-	.	2d	4b-	.
.	.	.	4cc	.
.	.	2B-	[2dd	.
=24	=24	=24	=24	=24
0BB-]	2.D	0d	4dd]	1f_
.	.	.	4cc	.
.	.	.	4b-	.
.	4E	.	4a	.
.	2F	.	1b-	1f_
.	2G	.	.	.
=25	=25	=25	=25	=25
0F	0A	0c	0a	0f]
=26	=26	=26	=26	=26
1F	1c	1f	1a	0r
2C	2c	2e	2g	.
2C	2c	2e	2a	.
=27	=27	=27	=27	=27
2.BB-	1.d	1.f	1b-	0r
4C	.	.	.	.
2D	.	.	2a	.
2G	2B-	2d	[2g	.
=28	=28	=28	=28	=28
1D	2.A	1d	2g]	1a
.	.	.	2f	.
.	4B-	.	.	.
1r	1c	2r	2.e	2g
.	.	2e	.	2a
.	.	.	4f	.
=29	=29	=29	=29	=29
0r	1G	2d	1g	1b-
.	.	2e	.	.
.	2F	2f	1cc	2a
.	2C	[2e	.	[2g
=30	=30	=30	=30	=30
2r	1D	4e]	2a	2g]
.	.	4d	.	.
2A	.	1d	2a	2f
2G	1r	.	2b-	1e
2A	.	2c	4a	.
.	.	.	4g	.
=31	=31	=31	=31	=31
1B-	2r	1d	2.f	2.d
.	2d	.	.	.
.	.	.	4g	4e
2A	2c	2r	2a	2f
[2G	2d	[2B-	2b-	2g
=32	=32	=32	=32	=32
2G]	2e	2B-]	2g	0r
2F#	1d	2A	2a	.
2G	.	2B-	1g	.
2E	[2c	2c	.	.
=33	=33	=33	=33	=33
1D	2c]	1d	1f	2r
.	2B	.	.	2f
1C	1c	1G	2r	2.e
.	.	.	2cc	.
.	.	.	.	4c
=34	=34	=34	=34	=34
0r	1G	1r	2.b-	2d
.	.	.	.	2e
.	.	.	4g	.
.	1d	2r	2a	1f
.	.	2d	2b-	.
=35	=35	=35	=35	=35
0r	1A	2.c	1cc	2e
.	.	.	.	2a
.	.	4A	.	.
.	1r	2B-	2dd	2.g
.	.	2c	4cc	.
.	.	.	4b-	4e
=36	=36	=36	=36	=36
0r	2r	1d	2a	2f
.	2B-	.	2dd	2g
.	2.A	2r	2.cc	1a
.	.	2f	.	.
.	4F	.	4a	.
=37	=37	=37	=37	=37
1r	2G	2.e	2b-	2g
.	2A	.	1a	2c
.	.	4c	.	.
1G	1B-	2d	.	1r
.	.	2e	2g	.
=38	=38	=38	=38	=38
2.F	2A	1f	1a	1r
.	2d	.	.	.
4D	.	.	.	.
2E	2.c	2g	1r	2r
2F	.	4f	.	2cc
.	4A	4e	.	.
=39	=39	=39	=39	=39
2G	2B-	2d	1r	2b-
2F	2c	2f	.	2a
2B-	2d	2r	2r	2g
2A	2c	2c	2cc	2f
=40	=40	=40	=40	=40
2G	1r	2d	2b-	2g
2F	.	1f	2a	2.cc
1c	2r	.	[1g	.
.	.	.	.	4b-
.	2c	2e	.	4g
.	.	.	.	4a
=41	=41	=41	=41	=41
1r	2B-	2d	2g]	2b-
.	2A	2c	2f	1cc
2r	1G	1d	1g	.
2G	.	.	.	2b-
=42	=42	=42	=42	=42
2F	0r	2r	1c	2a
2E	.	2g	.	2g
2D	.	2f	2r	2a
2C	.	2e	[2g	[2cc
=43	=43	=43	=43	=43
1G	1r	2d	4g]	2cc]
.	.	.	4f	.
.	.	2.g	2d	2b
1C	2r	.	1e	1cc
.	.	4f	.	.
.	2c	2e	.	.
=44	=44	=44	=44	=44
0r	2B-	2d	1f	2r
.	2A	2c	.	1cc
.	1G	2d	1g	.
.	.	2g	.	2b-
=45	=45	=45	=45	=45
2r	0r	2f	1cc	2a
2c	.	2e	.	2.g
2B-	.	2d	2r	.
.	.	.	.	4f
2A	.	2c	[2cc	2f
=46	=46	=46	=46	=46
1G	1r	2.d	2cc]	1g
.	.	.	2b-	.
.	.	4e	.	.
2F	2r	2f	2a	1cc
2C	2c	2e	[2g	.
=47	=47	=47	=47	=47
2D	2B-	2d	4g]	2r
.	.	.	4f	.
2F	2A	2c	1f	2f
1C	1G	[1c	.	2g
.	.	.	2e	2g
=48	=48	=48	=48	=48
0F	2F	1c]	2.f	2.a
.	2.A	.	.	.
.	.	.	4g	4b-
.	.	1f	1a	1cc
.	4G	.	.	.
.	4A	.	.	.
.	4B-	.	.	.
=49	=49	=49	=49	=49
0C	0c	0e	0g	0cc
=50	=50	=50	=50	=50
0r	1F	0r	1a	1cc
.	2.c	.	2.e	2.g
.	4c	.	4e	4g
=51	=51	=51	=51	=51
0r	2c	0r	2e	2g
.	2F	.	2f	2a
.	2c	.	2e	2g
.	2d	.	[2a	2f
=52	=52	=52	=52	=52
0r	2c	0r	4a]	4cc
.	.	.	4g	4b-
.	4F	.	4cc	4a
.	4G	.	4b-	4g
.	4A	.	2a	2f
.	4B-	.	.	.
.	2c	.	2g	2e
=53	=53	=53	=53	=53
1r	1F	1r	2.f	2.a
.	.	.	4g	4b-
1F	2r	1c	2a	1cc
.	[2A	.	2b-	.
=54	=54	=54	=54	=54
2.C	2A]	2.e	1.cc	0r
.	1G	.	.	.
4C	.	4e	.	.
2C	.	2e	.	.
2D	2F	2f	2b-	.
=55	=55	=55	=55	=55
2C	2A	2e	2cc	0r
2BB-	2B-	2d	2f	.
4F	2A	2c	1a	.
4E	.	.	.	.
4D	[2d	2f	.	.
4C	.	.	.	.
=56	=56	=56	=56	=56
2BB-	2d]	2f	0r	1r
2AA	2c	1f	.	.
1D	4B-	.	.	1f
.	4A	.	.	.
.	4A	2d	.	.
.	8G	.	.	.
.	8F	.	.	.
=57	=57	=57	=57	=57
1C	2G	1.e	1c	2.cc
.	1c	.	.	.
.	.	.	.	4cc
1r	.	.	2.g	2cc
.	2B	2d	.	2dd
.	.	.	4g	.
=58	=58	=58	=58	=58
0r	2c	2e	2g	1cc
.	2F	2f	2a	.
.	2G	2.d	2g	1b-
.	2B-	.	2f	.
.	.	4e	.	.
=59	=59	=59	=59	=59
2r	2.F	1f	4cc	1.a
.	.	.	4b-	.
1F	.	.	4a	.
.	4G	.	4g	.
.	4A	2.c	2f	.
.	4B-	.	.	.
2C	[2c	.	2e	2g
.	.	4B-	.	.
=60	=60	=60	=60	=60
4F	2c]	2A	1a	2f
4G	.	.	.	.
4A	2F	2f	.	2cc
4B-	.	.	.	.
2c	2C	2e	[1g	2cc
2B	2G	2d	.	[2dd
=61	=61	=61	=61	=61
1c	1C	2.e	0g]	4dd]
.	.	.	.	4cc
.	.	.	.	1cc
.	.	4c	.	.
1G	2r	1d	.	.
.	2G	.	.	2b
=62	=62	=62	=62	=62
2C	2.c	1e	2r	1cc
2E	.	.	2g	.
.	4B-	.	.	.
[1F	2.A	2r	2.cc	1r
.	.	2c	.	.
.	4G	.	4b-	.
=63	=63	=63	=63	=63
1F]	2F	2.f	4a	2r
.	.	.	4g	.
.	2A	.	1f	2cc
.	.	4e	.	.
1r	2.B-	4d	.	2.dd
.	.	4c	.	.
.	.	[2B-	2f	.
.	4c	.	.	4cc
=64	=64	=64	=64	=64
0r	1.d	2B-]	2g	2b-
.	.	2F	2a	2a
.	.	2G	2b-	2g
.	2c	2A	[2a	[2f
=65	=65	=65	=65	=65
0r	1d	1B-	2a]	2f]
.	.	.	2g	4e
.	.	.	.	4d
.	2c	1A	1a	2e
.	2F	.	.	[2f
=66	=66	=66	=66	=66
1C	2.c	2r	2g	2f]
.	.	1c	2.cc	2e
.	4B-	.	.	.
2.F	4A	.	.	1f
.	4G	.	4b-	.
.	[2F	[2f	4a	.
4E	.	.	4g	.
=67	=67	=67	=67	=67
4D	2F]	4f]	2f	0r
4C	.	4e	.	.
1BB-	2F	1d	1b-	.
.	2G	.	.	.
2C	2A	2c	[2a	.
=68	=68	=68	=68	=68
2D	1B-	2f	2a]	1r
2E	.	4e	2g	.
.	.	4d	.	.
[1F	[1A	1c	1a	2r
.	.	.	.	2f
=69	=69	=69	=69	=69
0F]	1A]	2r	2f	2.cc
.	.	2c	2.cc	.
.	.	.	.	4b-
.	1r	2.f	.	4a
.	.	.	4b-	4g
.	.	.	4a	[2f
.	.	4e	4g	.
=70	=70	=70	=70	=70
0r	0r	4d	4f	2f]
.	.	4c	4e	.
.	.	1B-	1d	2f
.	.	.	.	2g
.	.	2A	2f	2a
=71	=71	=71	=71	=71
0r	0r	2G	2g	2b-
.	.	2F	2a	2a
.	.	2G	2b-	2g
.	.	2A	2a	[2f
=72	=72	=72	=72	=72
2r	1r	2B-	1g	2f]
2C	.	2.c	.	4e
.	.	.	.	4d
2.c	2r	.	2g	2e
.	.	4B-	.	.
.	2F	4A	[2cc	2a
4B-	.	4G	.	.
=73	=73	=73	=73	=73
4A	2.c	2F	4cc]	1a
4G	.	.	4b-	.
1F	.	2c	4a	.
.	4B-	.	4g	.
.	2A	2d	2f	1r
2C	2G	2e	2e	.
=74	=74	=74	=74	=74
2D	2F	2f	2d	1r
2E	2c	4e	1g	.
.	.	4d	.	.
1F	2.A	[1c	.	2r
.	.	.	[2f	2f
.	8G	.	.	.
.	8F	.	.	.
=75	=75	=75	=75	=75
1C	2G	2c]	2f]	2.cc
.	2.c	2G	2e	.
.	.	.	.	4b-
[1F	.	2A	4f	4a
.	4B-	.	4g	4g
.	4A	[2c	4a	[2f
.	4G	.	4b-	.
=76	=76	=76	=76	=76
1F]	1A	2c]	2cc	2f]
.	.	1f	2a	2c
2r	2G	.	2b-	2d
2C	2G	2e	2cc	2e
=77	=77	=77	=77	=77
2D	2F	2d	2a	2f
2E	2c	2G	2g	2g
2F	2A	2A	1f	2c
2D	2F	2B-	.	[2f
=78	=78	=78	=78	=78
0C	0G	0c	0cc	2f]
.	.	.	.	4e
.	.	.	.	4d
.	.	.	.	1e
=79	=79	=79	=79	=79
0F	0F	0c	0a	0f
==	==	==	==	==
*-	*-	*-	*-	*-
!!!CDT: 1525/^1526/-1594/2/2
!!!OCY: Italia
!!!AGN: Mass (Parody)
!!!AST: renaissance, vocal
!!!ASW: Madrigal 1550 (Rore)
!!!PWK: Masses, Book 12
!!!RNB: Cadence finals: C
!!!YOR: Le Opere Complete, v. 29, p. 88
!!!YOO: Rome, Italy: Fratelli Scalera
!!!END: 1992//
!!!EED: John Miller
!!!YEC: Copyright 2000, John Miller
!!!YEN: United States of America
!!!YEM: Rights to all derivative electronic formats reserved.
!!!YEM: Refer to licensing agreement for further details.
!!!YEM: This file must be accompanied by the licensing agreement.
!!!YEM: A copy of the licensing agreement may be found at http://www.music-cog.ohio-state.edu/HumdrumDatabases/Palestrina/license.txt
!!!EMD: converted to Humdrum by Bret Aarden
